X: 38462
T: Stay Where You Are
R: jig
M: 6/8
K: Gmajor
|:dB/c/d ABc|d2A AGE|dB/c/d ABc|def g3|
dB/c/d ABc|d2A AGE|GAG D3|c3 ABc:|
|:d2e fed|ecA AcA|d2e g/f/ed|f3 gfe|
d2e fed|ecA AGE|D3 D3|c3 ABc:|
|:d2A c2A|d2A ABc|d2A c2A|def g3|
d2A c2A|B2G A2F|G3 D3|c3 ABc:|

